!!!OTL: BLINDE KUH SOLL DIRS GELINGEN
!!!ARE: Europa, Mitteleuropa, Deutschland
!!!SCT: K2511
!!!YEM: Copyright 1995, estate of Helmut Schaffrath.
**kern
*ICvox
*Ivox
*M4/4
*k[f#]
*G:
=1
{4g
4g
4g
4b
=2
4g
4g
4d
4d}
=3
{4g
4g
4g
4b
=4
4g
4g
4d
4d}
=5
{4f#
4d
2g
=6
4f#
4d
2g}
=7
{4f#
4f#
4g
4g
=8
4a
4f#
2g}
==
!!!AGN: Kinder - Lied, Such - Spiel
!!!ONB: ESAC (Essen Associative Code) Database: KINDER
!!!AMT: simple quadruple
!!!AIN: vox
!!!EED: Helmut Schaffrath
!!!EEV: 1.0
*-
